X:19
T:John MacLean of Detroit
R:jig
C:Theresa Morrison
D:Laments and Merry Melodies, Theresa Morrison
Z:Paul Stewart Cranford (P.S.C.), <http://www.cranfordpub.com>
L:1/8
M:6/8
K:Bb
D|B,DF FDF|GBG FDC|B,2 D FDB,|CDC C2 D|
B,DF FDF|GBG FDF|B3 cBc dBB B2:|
|:e|dfB dfB|dfb gfe|dfB dfb|[1gfd c2 e|
dfB dfB|dfb gfd|(f b2) gfd|fdB B2:|
[2gfd c3|b2  b gfd|fbf gfd|(f b2) gfd|fdB B2|]
